X:256
T: E BISSELE LIEB E BISSELE TREU
N: Z0255
O: Europa, Mitteleuropa, Deutschland, bayrisches Gebirge
R: lyrisches Lied, Romanze
M: 3/8
L: 1/16
K: A
A2 | c2c3d | e4ze | e2d3d | c4z
c | c2B3B | B2A3A | BdG3G | A4

@@@ Tune index: 10014
